picto/funicular-railway-right-framed.svg

<svg class="color-immutable" width="30" height="30" viewBox="0 0 30 30" fill="none" xmlns="http://www.w3.org/2000/svg"><path d="M0 0H30V30H0V0Z" fill="#2D327D"/><path d="M25.5 3C26.325 3 27 3.675 27 4.5V25.5C27 26.325 26.325 27 25.5 27H4.5C3.675 27 3 26.325 3 25.5V4.5C3 3.675 3.675 3 4.5 3H25.5ZM25.5 2.625H4.5C3.46613 2.625 2.625 3.46613 2.625 4.5V25.5C2.625 26.5339 3.46613 27.375 4.5 27.375H25.5C26.5339 27.375 27.375 26.5339 27.375 25.5V4.5C27.375 3.46613 26.5339 2.625 25.5 2.625Z" fill="white"/><path d="M6.37493 20.1448C6.40568 20.1448 6.43612 20.1409 6.46582 20.1334L23.7159 15.821C23.8829 15.7794 23.9998 15.6293 23.9998 15.4572V6.8466C23.9998 6.39112 23.6304 6.0216 23.1751 6.0216C23.1061 6.0216 23.0376 6.03015 22.9709 6.04717L6.621 10.2175C6.25567 10.3108 6 10.6399 6 11.0169V19.7696C6 19.9766 6.16793 20.1448 6.37493 20.1448ZM19.6875 8.02515C19.6875 7.81815 19.8554 7.65022 20.0624 7.65022H22.8748C23.0821 7.65022 23.2501 7.81815 23.2501 8.02515V12.5251C23.2501 12.7321 23.0821 12.9 22.8748 12.9H20.0625C19.8555 12.9 19.6876 12.7321 19.6876 12.5251V8.02515H19.6875ZM15.3752 9.1266C15.3752 8.9196 15.5431 8.75145 15.7501 8.75145H18.5626C18.7696 8.75145 18.9375 8.91967 18.9375 9.1266V13.6266C18.9375 13.8336 18.7696 14.0015 18.5626 14.0015H15.7501C15.5432 14.0015 15.3752 13.8336 15.3752 13.6266V9.1266ZM11.0624 10.225C11.0624 10.018 11.2304 9.84982 11.4375 9.84982H14.2501C14.4571 9.84982 14.625 10.018 14.625 10.225V14.725C14.625 14.932 14.4571 15.0999 14.2501 15.0999H11.4375C11.2304 15.0999 11.0624 14.932 11.0624 14.725V10.225ZM6.74993 11.3251C6.74993 11.1181 6.91793 10.95 7.12485 10.95H9.93735C10.1444 10.95 10.3126 11.1182 10.3126 11.3251V15.8248C10.3126 16.0318 10.1445 16.2 9.93735 16.2H7.12485C6.91793 16.2 6.74993 16.0318 6.74993 15.8248V11.3251Z" fill="white"/><path d="M23.9999 18.7267L6 23.2267V24.0001L23.9999 19.5001V18.7267Z" fill="white"/><path d="M10.1785 20.3985C10.1785 20.9987 10.6658 21.4861 11.266 21.4861C11.8664 21.4861 12.3536 20.9987 12.3536 20.3985C12.3536 19.7981 11.8664 19.311 11.266 19.311C10.6658 19.311 10.1785 19.7981 10.1785 20.3985Z" fill="white"/><path d="M7.47327 21.1313C7.47327 21.7318 7.96062 22.2188 8.56084 22.2188C9.16122 22.2188 9.64834 21.7318 9.64834 21.1313C9.64834 20.5311 9.16114 20.0441 8.56084 20.0441C7.96062 20.044 7.47327 20.5311 7.47327 21.1313Z" fill="white"/><path d="M17.618 18.5379C17.618 19.1383 18.1051 19.6255 18.7056 19.6255C19.3058 19.6255 19.793 19.1384 19.793 18.5379C19.793 17.9377 19.3057 17.4503 18.7056 17.4503C18.1051 17.4503 17.618 17.9377 17.618 18.5379Z" fill="white"/><path d="M20.3796 17.8612C20.3796 18.4616 20.8667 18.949 21.4672 18.949C22.0674 18.949 22.5546 18.4617 22.5546 17.8612C22.5546 17.2612 22.0674 16.7739 21.4672 16.7739C20.8667 16.7739 20.3796 17.2612 20.3796 17.8612Z" fill="white"/></svg>

<svg class="color-immutable" width="30" height="30" viewBox="0 0 30 30" fill="none" xmlns="http://www.w3.org/2000/svg"><g clip-path="url(#a)"><path d="M0 0h30v30H0V0Z" fill="#2D327D"/><path d="M25.5 3c.825 0 1.5.675 1.5 1.5v21c0 .825-.675 1.5-1.5 1.5h-21c-.825 0-1.5-.675-1.5-1.5v-21C3 3.675 3.675 3 4.5 3h21Zm0-.375h-21A1.877 1.877 0 0 0 2.625 4.5v21c0 1.034.841 1.875 1.875 1.875h21a1.877 1.877 0 0 0 1.875-1.875v-21A1.877 1.877 0 0 0 25.5 2.625Z" fill="#fff"/><path d="M6.375 20.145a.37.37 0 0 0 .09-.012l17.25-4.312a.375.375 0 0 0 .285-.364v-8.61a.825.825 0 0 0-1.03-.8l-16.349 4.17a.825.825 0 0 0-.621.8v8.753c0 .207.168.375.375.375Zm13.313-12.12c0-.207.167-.375.374-.375h2.813c.207 0 .375.168.375.375v4.5a.375.375 0 0 1-.375.375h-2.813a.375.375 0 0 1-.374-.375v-4.5Zm-4.313 1.102c0-.207.168-.376.375-.376h2.813c.207 0 .375.169.375.376v4.5a.375.375 0 0 1-.375.374H15.75a.375.375 0 0 1-.375-.374v-4.5Zm-4.313 1.098c0-.207.168-.375.376-.375h2.812c.207 0 .375.168.375.375v4.5a.375.375 0 0 1-.375.375h-2.813a.375.375 0 0 1-.375-.375v-4.5Zm-4.312 1.1c0-.207.168-.375.375-.375h2.812c.207 0 .376.168.376.375v4.5a.375.375 0 0 1-.376.375H7.125a.375.375 0 0 1-.375-.375v-4.5ZM24 18.727l-18 4.5V24l18-4.5v-.773ZM10.178 20.398a1.088 1.088 0 1 0 2.177 0 1.088 1.088 0 0 0-2.177 0ZM7.473 21.131a1.088 1.088 0 1 0 2.176 0 1.088 1.088 0 0 0-2.176 0ZM17.618 18.538a1.088 1.088 0 1 0 2.176 0 1.088 1.088 0 0 0-2.176 0ZM20.38 17.861a1.088 1.088 0 1 0 2.176 0 1.088 1.088 0 0 0-2.176 0Z" fill="#fff"/></g><defs><clipPath id="a"><path fill="#fff" d="M0 0h30v30H0z"/></clipPath></defs></svg>
